X:1
T:The Morning Land
T:The Morning Land
T:William Howard Doane
T:Frances Jane (Fanny) Crosby, 1877
T:Public Domain Courtesy of the Cyber Hymnal™
T:Public Domain Courtesy of the Cyber Hymnal™
C:William Howard Doane
Z:Public Domain
Z:Courtesy of the Cyber Hymnal™
%%score ( 1 2 ) 3
L:1/8
Q:1/4=110
M:4/4
K:Eb
V:1 treble 
V:2 treble 
V:3 bass 
V:1
 E[EF] | [EG]2 [EG]>[EG] [GB]2 [FA]>[EG] | [EG]4 [DF]2 [DF][EG] | [FA]2 [FA][FA] [DF][DB] [FA]2 | %4
w: 1.~O how|light to the soul are its|cross- es, And how|ea- sy our bur- dens to|
w: 2.~O how|light to the soul are its|cross- es, And the|con- flicts and tri- als we|
w: 3.~O how|light to the soul are its|cross- es, O the|mer- cy of Je- sus, our|
 [EG]6 [EG][FA] | [GB]2 [EB]>[DB] [EB]2 [DA]>[EG] | [EA]4 [Ec]2 [Ec][Ec] | %7
w: bear, When we|think of that land o- ver|Jor- dan, And the|
w: meet; We shall|soon lay down them o- ver|Jo- rdan, We shall|
w: friend! We shall|praise Him for all o- ver|Jor- dan, In our|
 [EB]2 [EB][EG] [DF]2 [E=A]2 | [DB]6 ||"^Refrain" [DB]>[FB] | [EB]2 [EG][GB] [Ge]3 [Ge] | %11
w: joy that will crown us|there.|||
w: lay them at Je- sus’|feet.|O the|bright morn- ing land, the|
w: beau- ti- ful home be-|yond.|||
 [Ae]2 [Ac][GB] [GB]3 [GB] | [GB]2 [EG][EB] [DB]2 [DF][FA] | [EG]6 [EG][FA] | %14
w: |||
w: dear morn- ing land, The|land where all sor- row is|o’er! We shall|
w: |||
 [GB]>[GB] [GB][EG] [GB]2 [Ge][Bd] | [Ac]>[Ac] [Ac]A [Ac]2 [Ae]>[Ec] | [EB][EG]E[EG] [EG]2 [DF]2 | %17
w: |||
w: sit be- neath the ray of a|gold- en sum- mer day, Where the|sha- dows will re- turn no|
w: |||
 E6 |] %18
w: |
w: more.|
w: |
V:2
 E x | x8 | x8 | x8 | x8 | x8 | x8 | x8 | x6 || x2 | x8 | x8 | x8 | x8 | x8 | x3 A x4 | x8 | E6 |] %18
V:3
 [E,G,][E,A,] | [E,B,]2 [E,B,]>[E,B,] [E,E]2 [D,B,]>[E,B,] | [B,,B,]4 [B,,B,]2 [B,,B,][B,,B,] | %3
 [B,,B,]2 [B,,B,][B,,B,] [B,,B,][B,,B,] [B,,B,]2 | [E,B,]6 [E,B,][E,B,] | %5
 [E,B,]2 [E,G,]>[F,A,] [G,B,]2 [F,B,]>[E,B,] | [C,A,]4 [A,,A,]2 [A,,A,][C,A,] | %7
 [E,G,]2 [E,G,][E,B,] [F,B,]2 [F,C]2 | [B,,B,]6 || [B,,B,]>[B,,A,] | %10
 [E,G,]2 [E,B,][E,E] [E,B,]3 [E,B,] | [A,C]2 [A,E][E,E] [E,E]3 [E,E] | %12
 [E,E]2 [E,B,][E,G,] [B,,F,]2 [B,,B,][B,,B,] | [E,B,]6 [E,B,][E,B,] | %14
 [E,E]>[E,E] [E,E][E,B,] [E,E]2 [E,B,][G,E] | [A,E]>[A,E] [A,E][A,C] [A,E]2 [A,,C]>[C,A,] | %16
 [E,G,][E,B,][G,B,][E,B,] B,2 [B,,A,]2 | [E,G,]6 |] %18

